packages/kaspersky-hexa-ui-icons/src/iconsSVGs/28x20/FlagPk.svg

<svg width="28" height="20" viewBox="0 0 28 20" fill="none" xmlns="http://www.w3.org/2000/svg">
<g clip-path="url(#clip0_5138_1651)">
<path d="M0 2C0 0.895431 0.895431 0 2 0H26C27.1046 0 28 0.895431 28 2V18C28 19.1046 27.1046 20 26 20H2C0.895431 20 0 19.1046 0 18V2Z" fill="white"/>
<mask id="mask0_5138_1651" style="mask-type:luminance" maskUnits="userSpaceOnUse" x="0" y="0" width="28" height="20">
<rect width="28" height="20" rx="2" fill="white"/>
</mask>
<g mask="url(#mask0_5138_1651)">
<path d="M26 19.5V20H2V19.5H26ZM27.5 18V2C27.5 1.17157 26.8284 0.5 26 0.5H2C1.17157 0.5 0.5 1.17157 0.5 2V18C0.5 18.8284 1.17157 19.5 2 19.5V20C0.895431 20 0 19.1046 0 18V2C2.57702e-07 0.895431 0.895431 0 2 0H26C27.1046 0 28 0.895431 28 2V18C28 19.1046 27.1046 20 26 20V19.5C26.8284 19.5 27.5 18.8284 27.5 18Z" fill="#F5F5F5"/>
<path fill-rule="evenodd" clip-rule="evenodd" d="M28 0H8V20H28V0Z" fill="#0A632F"/>
</g>
<g clip-path="url(#clip1_5138_1651)">
<path fill-rule="evenodd" clip-rule="evenodd" d="M23.6701 10.7505C23.5418 12.0012 23.0087 13.2029 22.0665 14.1451C19.8206 16.391 16.1005 16.3121 13.7574 13.969C11.4142 11.6258 11.3353 7.90568 13.5812 5.65982C14.5234 4.7176 15.7251 4.18455 16.9758 4.05622C16.5818 4.28838 16.209 4.57485 15.8685 4.91527C13.8268 6.95697 13.7258 10.1662 15.643 12.0833C17.5601 14.0005 20.7693 13.8995 22.811 11.8578C23.1515 11.5174 23.4379 11.1445 23.6701 10.7505ZM21.0924 8.10469L20.7742 10.0031L19.8849 8.29594L17.981 8.57994L19.3298 7.2066L18.4714 5.48368L20.1943 6.3421L21.5677 4.99328L21.2837 6.89715L22.9908 7.78645L21.0924 8.10469Z" fill="white"/>
</g>
</g>
<defs>
<clipPath id="clip0_5138_1651">
<rect width="28" height="20" fill="white"/>
</clipPath>
<clipPath id="clip1_5138_1651">
<rect width="13" height="13" fill="white" transform="translate(9.27902 9.7643) rotate(-45)"/>
</clipPath>
</defs>
</svg>

<svg xmlns="http://www.w3.org/2000/svg" width="28" height="20" fill="none" viewBox="0 0 28 20"><g clip-path="url(#a)"><path fill="#fff" d="M0 2C0 .8954.8954 0 2 0h24c1.1046 0 2 .8954 2 2v16c0 1.1046-.8954 2-2 2H2c-1.1046 0-2-.8954-2-2z"/><mask id="b" width="28" height="20" x="0" y="0" maskUnits="userSpaceOnUse" style="mask-type:luminance"><rect width="28" height="20" fill="#fff" rx="2"/></mask><g mask="url(#b)"><path fill="#f5f5f5" d="M26 19.5v.5H2v-.5zm1.5-1.5V2c0-.8284-.6716-1.5-1.5-1.5H2C1.1716.5.5 1.1716.5 2v16c0 .8284.6716 1.5 1.5 1.5v.5c-1.1046 0-2-.8954-2-2V2C0 .8954.8954 0 2 0h24c1.1046 0 2 .8954 2 2v16c0 1.1046-.8954 2-2 2v-.5c.8284 0 1.5-.6716 1.5-1.5"/><path fill="#0a632f" fill-rule="evenodd" d="M28 0H8v20h20z" clip-rule="evenodd"/></g><g clip-path="url(#c)"><path fill="#fff" fill-rule="evenodd" d="M23.6701 10.7505c-.1283 1.2507-.6614 2.4524-1.6036 3.3946-2.2459 2.2459-5.966 2.167-8.3091-.1761-2.3432-2.3432-2.4221-6.0633-.1762-8.3092.9422-.9422 2.1439-1.4752 3.3946-1.6036a5.55 5.55 0 0 0-1.1073.859c-2.0417 2.0418-2.1427 5.251-.2255 7.1681 1.9171 1.9172 5.1263 1.8162 7.168-.2255a5.55 5.55 0 0 0 .8591-1.1073m-2.5777-2.6458-.3182 1.8984-.8893-1.7072-1.9039.284 1.3488-1.3733-.8584-1.723 1.7229.8585 1.3734-1.3488-.284 1.9039 1.7071.8893z" clip-rule="evenodd"/></g></g><defs><clipPath id="a"><path fill="#fff" d="M0 0h28v20H0z"/></clipPath><clipPath id="c"><path fill="#fff" d="M9.279 9.7643 18.4714.5719l9.1924 9.1924-9.1924 9.1924z"/></clipPath></defs></svg>
